src/assets/duotone/LocationCross.svg

<svg width="24" height="24" viewBox="0 0 24 24"  xmlns="http://www.w3.org/2000/svg">
<path d="M14.5299 12.4202L13.0799 10.9702L14.4799 9.57018C14.7699 9.28018 14.7699 8.80018 14.4799 8.51018C14.1899 8.22018 13.7099 8.22018 13.4199 8.51018L12.0199 9.91018L10.5699 8.46018C10.2799 8.17018 9.79994 8.17018 9.50994 8.46018C9.21994 8.75018 9.21994 9.23018 9.50994 9.52018L10.9599 10.9702L9.46994 12.4602C9.17994 12.7502 9.17994 13.2302 9.46994 13.5202C9.61994 13.6702 9.80994 13.7402 9.99994 13.7402C10.1899 13.7402 10.3799 13.6702 10.5299 13.5202L12.0199 12.0302L13.4699 13.4802C13.6199 13.6302 13.8099 13.7002 13.9999 13.7002C14.1899 13.7002 14.3799 13.6302 14.5299 13.4802C14.8199 13.1902 14.8199 12.7202 14.5299 12.4202Z" />
<path opacity="0.4" d="M20.6202 8.7C19.5802 4.07 15.5402 2 12.0002 2C12.0002 2 12.0002 2 11.9902 2C8.46024 2 4.43024 4.07 3.38024 8.69C2.20024 13.85 5.36024 18.22 8.22024 20.98C9.28024 22 10.6402 22.51 12.0002 22.51C13.3602 22.51 14.7202 22 15.7702 20.98C18.6302 18.22 21.7902 13.86 20.6202 8.7Z" />
</svg>

<?xml version="1.0" encoding="UTF-8"?>
<svg width="24" height="24" viewBox="0 0 24 24" xmlns="http://www.w3.org/2000/svg">
 <path d="m14.53 12.42-1.45-1.45 1.4-1.4c0.29-0.29 0.29-0.77 0-1.06s-0.77-0.29-1.06 0l-1.4 1.4-1.45-1.45c-0.29-0.29-0.76996-0.29-1.06 0s-0.29 0.77 0 1.06l1.45 1.45-1.49 1.49c-0.29 0.29-0.29 0.77 0 1.06 0.15 0.15 0.34 0.22 0.53 0.22 0.18996 0 0.37996-0.07 0.52996-0.22l1.49-1.49 1.45 1.45c0.15 0.15 0.34 0.22 0.53 0.22s0.38-0.07 0.53-0.22c0.29-0.29 0.29-0.76 0-1.06z"/>
 <path d="m20.62 8.7c-1.04-4.63-5.08-6.7-8.62-6.7h-0.01c-3.53 0-7.56 2.07-8.61 6.69-1.18 5.16 1.98 9.53 4.84 12.29 1.06 1.02 2.42 1.53 3.78 1.53s2.72-0.51 3.77-1.53c2.86-2.76 6.02-7.12 4.85-12.28z" opacity=".4"/>
</svg>
